Numix/64/status/weather-overcast.svg

<?xml version="1.0" encoding="UTF-8" standalone="yes"?>
<svg xmlns="http://www.w3.org/2000/svg" xmlns:xlink="http://www.w3.org/1999/xlink" width="64px" height="64px" viewBox="0 0 48 48" version="1.1">
  <g id="surface1">
    <path style=" stroke:none;fill-rule:nonzero;fill:rgb(84.705882%,84.705882%,84.705882%);fill-opacity:1;" d="M 14.203125 12 C 13.890625 12 13.558594 12.015625 13.222656 12.058594 C 7.835938 12.75 8 17.371094 8 17.371094 C 5.796875 17.746094 4 19.671875 4 21.683594 C 4 23.695312 6.296875 25.476562 8.226562 25.996094 C 9.375 26.304688 10.882812 25.996094 10.882812 25.996094 C 11.5625 27.199219 13.8125 28 15.378906 28 C 17.933594 28 20.5625 27.152344 21.167969 25.996094 C 21.167969 25.996094 31.753906 26.84375 33.953125 25.996094 C 37.152344 24.761719 36.152344 20.910156 34.023438 19.609375 C 31.894531 18.304688 29.113281 19.214844 29.113281 19.214844 C 29.113281 19.214844 29.101562 16.5625 26.089844 15.296875 C 23.082031 14.027344 20.542969 16.835938 20.542969 16.835938 C 20.542969 16.835938 18.855469 12.027344 14.203125 12 Z M 14.203125 12 "/>
    <path style=" stroke:none;fill-rule:nonzero;fill:rgb(92.54902%,92.54902%,92.54902%);fill-opacity:1;" d="M 24.925781 22 C 24.65625 22 24.363281 22.011719 24.070312 22.050781 C 19.359375 22.65625 19.5 26.699219 19.5 26.699219 C 17.570312 27.027344 16 28.710938 16 30.472656 C 16 32.234375 18.011719 33.792969 19.699219 34.246094 C 20.703125 34.515625 22.019531 34.246094 22.019531 34.246094 C 22.617188 35.300781 24.585938 36 25.957031 36 C 28.195312 36 30.492188 35.257812 31.023438 34.246094 C 31.023438 34.246094 40.285156 34.988281 42.207031 34.246094 C 45.007812 33.167969 44.132812 29.796875 42.269531 28.65625 C 40.40625 27.515625 37.972656 28.3125 37.972656 28.3125 C 37.972656 28.3125 37.964844 25.992188 35.328125 24.882812 C 32.695312 23.773438 30.476562 26.230469 30.476562 26.230469 C 30.476562 26.230469 29 22.023438 24.925781 22 Z M 24.925781 22 "/>
  </g>
</svg>

<svg xmlns="http://www.w3.org/2000/svg" width="64" height="64" viewBox="0 0 48 48">
 <g>
  <path d="m 14.203 12 c -0.313 0 -0.645 0.016 -0.98 0.059 c -5.387 0.691 -5.223 5.313 -5.223 5.313 c -2.203 0.375 -4 2.301 -4 4.313 c 0 2.01 2.297 3.793 4.227 4.313 c 1.148 0.309 2.656 0 2.656 0 c 0.68 1.203 2.93 2 4.496 2 c 2.555 0 5.184 -0.848 5.789 -2 c 0 0 10.586 0.848 12.785 0 c 3.199 -1.234 2.199 -5.086 0.07 -6.387 c -2.129 -1.305 -4.91 -0.395 -4.91 -0.395 c 0 0 -0.012 -2.652 -3.02 -3.918 c -3.01 -1.27 -5.547 1.539 -5.547 1.539 c 0 0 -1.688 -4.809 -6.34 -4.836 m 0 0" style="fill:#d7d7d7;fill-opacity:1;stroke:none;fill-rule:nonzero"/>
  <path d="m 24.926 22 c -0.27 0 -0.563 0.012 -0.855 0.051 c -4.711 0.605 -4.57 4.648 -4.57 4.648 c -1.93 0.328 -3.5 2.01 -3.5 3.773 c 0 1.762 2.01 3.32 3.699 3.773 c 1 0.27 2.32 0 2.32 0 c 0.598 1.055 2.566 1.754 3.938 1.754 c 2.238 0 4.535 -0.742 5.066 -1.754 c 0 0 9.262 0.742 11.184 0 c 2.801 -1.078 1.926 -4.449 0.063 -5.59 c -1.863 -1.141 -4.297 -0.344 -4.297 -0.344 c 0 0 -0.008 -2.32 -2.645 -3.43 c -2.633 -1.109 -4.852 1.348 -4.852 1.348 c 0 0 -1.477 -4.207 -5.551 -4.23 m 0 0" style="fill:#ececec;fill-opacity:1;stroke:none;fill-rule:nonzero"/>
 </g>
</svg>
